X:3
T:Leg of the Duck, The
S:from a Cork concertina player named Eoghan who passed through Berlin in early 1998
R:slide
N:transcribed by Alan Ng
Z: id:ng-other-3 transcribed by Alan Ng agng@students.wisc.edu Oct. 14, 1998
E:10
M:12/8
K:DMaj
e|:fga efg ~f3 edA|Bee e2A Bee e2e|fga efg ~f3 edA|Bdd d2A Bdd d3:|*
e|:fdd edd ~f3 edA|Bee e2A Bee e2e|fdd edd ~f3 edA|Bdd d2A Bdd d2:|**
